!!!!SEGMENT: pl-sa--l-1636--089-pc1_anonim--ave-stella-pc1.krn
!!!cenid: 17xx:796b
!!!COM: Anonim
!!!COM-rismID: pe30004985
!!!CDT:
!!!CNT:
!!!GTL: Ave Stella
!!!OTL: [post correcturam]
!!!PDT:
!!!AGN: Sacred
!!!SMS-siglum: PL-SA
!!!SMS-shelfmark: L 1636
!!!SMS-shelfwork: 089 G
!!!SMS-variant:
!!!SMS-altvar:
!!!NIFC-rismSourceID: 1001087415
!!!NIFC-islandoraID:
!!!URL-pdf-islandora:
!!!URL-scan:
!!!ONB-nifc: 43r, skan 0038, s. 1-3
!!!AIN: 2 empty
!!!key:
**kern	**fba	**kern
*part2	*	*part1
*staff2	*	*staff1
*Iempty	*	*Iempty
*I"Keyboard instrument	*	*
*clefF4	*	*clefC1
*k[]	*	*k[]
*d:	*	*d:
*M3/2	*	*M3/2
=1	=1	=1
!LO:TX:a:t=P:problem=oznaczenie metryczne 3/4	!	!LO:TX:a:t=P:problem=oznaczenie metryczne 3/4
2D/ 2DD/	.	4d/
.	.	4e/
4D/	.	1f/ 1d/
4C/	.	.
4BB/	.	.
4AA/	.	.
=2	=2	=2
*	*	*^
!	!	!	!LO:TX:a:t=P:problem=all\right, global
2GG/	.	4g/	4e\
.	.	4f/	4d\
1A\ 1AA\	#	1e/	1c#X\
=3	=3	=3	=3
4D/	.	4f/	4d\
4C/	.	4g/	4e\
4FF/	.	1a/	1f\
4GG/	.	.	.
4AA/	.	.	.
4BB/	.	.	.
=4	=4	=4	=4
*	*	*	*2\right
!LO:N:n=2:vis=1	!	!	!
1.C/ 1.CC/	.	1g/	2f\
.	.	.	4e\
.	.	.	4d\
!	!	!	!LO:TX:a:t=P:problem=2e/, 4c\ i 4B\ dopisane inną ręką
.	.	2e/	4c\
.	.	.	4B\
*	*	*v	*v
=5	=5	=5
!	!	!LO:N:n=1:vis=1
!	!	!LO:N:n=3:vis=1
1.F/ 1.C/ 1.AA/ 1.FF/	.	1.a/ 1.f/ 1.c/
=6	=6	=6
*	*	*^
*2\right	*	*	*
!LO:TX:a:t=P:problem=lub 2E\	!	!	!
2F\	.	2a/	2f\
2D/	.	2a/	2f#X\
4C/	.	4g/	4e\
4AA/	.	4a/	4f#X\
=7	=7	=7	=7
2G/	.	1b-X/ 1g/	1d\
4D/	.	.	.
4E/	.	.	.
!LO:TX:a:t=P:problem=all\right, global	!	!	!LO:N:vis=2.
4F\	.	2a/	2f\
4AA/	.	.	.
*	*	*v	*v
!!LO:LB:g=original
=8	=8	=8
*k[]	*	*k[b-]
*	*	*^
!	!	!LO:TX:a:t=P:problem=przy kluczu ♭ b-	!
2BB/	.	2a/	2f\
1C/	.	1g/	4f\
.	.	.	4e\
.	.	.	2e\
*	*	*v	*v
=9	=9	=9
1.F/ 1.C/ 1.AA/ 1.FF/	.	1.a/ 1.f/ 1.c/
=10||	=10||	=10||
*	*	*^
1F/ 1FF/	.	1a/ 1f/	1reyy
4C/	.	2g/	2e\
4C#X/	.	.	.
=11	=11	=11	=11
2D/	.	2f/	2d\
!LO:TX:a:t=P:problem=niejednoznaczny symbol nad nutą, przypomina trochę 1G	!	!	!
1GG/	.	2.g/	2.e\
.	.	4f/	4d\
*	*	*v	*v
=12	=12	=12
1.A\ 1.E\ 1.AA\	.	1.e/ 1.c#X\
=13	=13	=13
*	*	*^
4FF/	.	1a/	1f\
4GG/	.	.	.
4AA/	.	.	.
4BB/	.	.	.
8C/L	.	2g/	2e\
8D/	.	.	.
8E/	.	.	.
8C#X/J	.	.	.
=14	=14	=14	=14
8D/L	.	2f/	2d\
8C/	.	.	.
!LO:TX:a:t=P:problem=♭ nad nutą	!	!	!
8BB-/	.	.	.
8AA/J	.	.	.
1GG/	.	2.g/	2.e\
.	.	4f/	4d\
=15	=15	=15	=15
!LO:SIC:s=1.A\ 1.E\ 1.C#\ 1.AA\:v	!	!LO:N:vis=1	!
1.A\ 1.E\ 1.C\ 1.AA\	.	1.e/	1.c#X\
=16	=16	=16	=16
!LO:TX:a:t=P:problem=2CC/ i 2DD/ bardzo słabo widoczne	!	!	!
2C/ 2CC/	.	2g/	2e\
2D/ 2DD/	.	2f/	2d\
2E/ 2EE/	.	2g/	2e\
*	*	*v	*v
!!LO:LB:g=original
=17	=17	=17
*k[b-]	*	*
*	*	*^
!LO:TX:a:t=P:problem=przy kluczu ♭ BB-	!	!	!
4FF/	.	1a/ 1f\	1ryy
4GG/	.	.	.
4AA/	.	.	.
4BB-/	.	.	.
4C/	.	4g/	2e\
4C#X/	.	4a/	.
=18	=18	=18	=18
4D/	.	2f/	2d\
4GG/	.	.	.
!	!	!LO:N:vis=1	!
1AA/	.	2.e/	4d\
!	!	!	!LO:SIC:s=8c#\:v
!	!	!	!LO:N:vis=4
.	.	.	8c\
!	!	!	!LO:SIC:s=8Bn\:v
.	.	.	8B-\
!	!	!	!LO:SIC:s=2c#\:v
.	.	.	2c\
.	.	4g/	.
*	*	*v	*v
=19	=19	=19
!LO:SIC:s=1.F#/ 1.D/ 1.AA/ 1.DD/:v	!	!
!LO:N:n=3:vis=1	!	!
1.F/ 1.D/ 1.AA/ 1.DD/	.	1.f#X/ 1.d/ 1.A/
==	==	==
*-	*-	*-
!!!system-decoration: {(s1,s2)}
!!!ENC: Zofia Niedbalska
!!!END: 2020-12-10
!!!ENC: Andrzej Kubiczek
!!!END: 2020-06-13
